X:86
T:Playford simple chords 14
M:3/4
L:1/8
K:Bm
[d2D,2F,2A,2] d2 c2 | e2 [B2G,2B,2D2] B2 | A2>A2 [B2E,2G,2B,2] | B2 c2 A2 | [d6D,6F,6A,6] |
A2 [d2D,2F,2A,2] dd | c2 e2 [d2G,2B,2D2] | cB2< A2A | [B2E,2G,2B,2] B2 c2 |
A2 [d4D,4F,4A,4] | A4 [d2D,2F,2A,2] | A2 B2 AG | [F2D,2F,2A,2]>G2 A2 |
GF [E2E,2G,2B,2] F2 | G2 A2 [F3D,3F,3A,3] |E D2 E2 | [F2B,2D2F2]>E2 D2 |
E2 [F2D,2F,2A,2]>E2 | D2 E2 [FG,B,D]G | A2 E2>D2 | [D6D,6F,6A,6] |


